svg/fluentui-system-icons/ic_fluent_cloud_sync_16_filled.svg

<svg width="16" height="16" viewBox="0 0 16 16" fill="none" xmlns="http://www.w3.org/2000/svg">
<path d="M4.03004 5.50733C4.27283 3.53062 5.95767 2 8 2C9.92958 2 11.54 3.36628 11.9167 5.1842C11.4647 5.06404 10.9898 5 10.5 5C7.46243 5 5 7.46243 5 10.5C5 11.02 5.07217 11.5232 5.20703 12H4.25C2.45507 12 1 10.5449 1 8.75C1 7.029 2.33769 5.62043 4.03004 5.50733ZM10.5 15C12.9853 15 15 12.9853 15 10.5C15 8.01472 12.9853 6 10.5 6C8.01472 6 6 8.01472 6 10.5C6 12.9853 8.01472 15 10.5 15ZM12.9999 8V9.23909C13.0001 9.24595 13.0001 9.25281 12.9999 9.25966V9.5C12.9999 9.77614 12.7761 10 12.4999 10H10.9999C10.7238 10 10.4999 9.77614 10.4999 9.5C10.4999 9.22386 10.7238 9 10.9999 9H11.4692C11.182 8.84058 10.8516 8.75 10.5 8.75C9.84608 8.75 9.26549 9.0633 8.89975 9.55009C8.73388 9.77087 8.42044 9.81537 8.19966 9.6495C7.97889 9.48363 7.93438 9.17019 8.10025 8.94942C8.64674 8.22204 9.51832 7.75 10.5 7.75C11.0465 7.75 11.5588 7.89627 11.9999 8.15142V8C11.9999 7.72386 12.2238 7.5 12.4999 7.5C12.7761 7.5 12.9999 7.72386 12.9999 8ZM8.50008 13.5C8.22393 13.5 8.00008 13.2761 8.00008 13V11.7609C8 11.7574 7.99997 11.7538 7.99997 11.7503C7.99997 11.747 8.00001 11.7437 8.00008 11.7403V11.5C8.00008 11.2239 8.22393 11 8.50008 11H10.0001C10.2762 11 10.5001 11.2239 10.5001 11.5C10.5001 11.7761 10.2762 12 10.0001 12H9.53078C9.81799 12.1594 10.1484 12.25 10.5 12.25C11.1539 12.25 11.7345 11.9367 12.1003 11.4499C12.2661 11.2291 12.5796 11.1846 12.8003 11.3505C13.0211 11.5164 13.0656 11.8298 12.8997 12.0506C12.3533 12.778 11.4817 13.25 10.5 13.25C9.95355 13.25 9.44121 13.1037 9.00008 12.8486V13C9.00008 13.2761 8.77622 13.5 8.50008 13.5Z" fill="#212121"/>
</svg>

<svg xmlns="http://www.w3.org/2000/svg" width="16" height="16"><path d="M4.03 5.507a4 4 0 0 1 7.887-.323A5.5 5.5 0 0 0 5.207 12H4.25a3.25 3.25 0 0 1-.22-6.493ZM10.5 15a4.5 4.5 0 1 0 0-9 4.5 4.5 0 0 0 0 9ZM13 8v1.5a.5.5 0 0 1-.5.5H11a.5.5 0 0 1 0-1h.47a1.996 1.996 0 0 0-2.57.55.5.5 0 0 1-.8-.6 2.996 2.996 0 0 1 3.9-.8V8a.5.5 0 0 1 1 0Zm-4.5 5.5A.5.5 0 0 1 8 13v-1.24a.468.468 0 0 1 0-.02v-.24a.5.5 0 0 1 .5-.5H10a.5.5 0 0 1 0 1h-.47a1.996 1.996 0 0 0 2.57-.55.5.5 0 1 1 .8.6 2.996 2.996 0 0 1-3.9.799V13a.5.5 0 0 1-.5.5Z"/></svg>
